packages/foundations/assets/icons/functional/images/human/user.svg

<svg xmlns="http://www.w3.org/2000/svg" width="32" height="32" fill="none"><path fill="#1A1C1F" fill-rule="evenodd" d="M14.792 2.11c-1.311.221-2.596.873-3.602 1.829-1.008.958-1.652 2.067-1.996 3.438-.186.741-.232 1.907-.106 2.701.405 2.559 2.21 4.711 4.645 5.539.834.284 1.293.355 2.267.355s1.433-.071 2.267-.355c2.435-.828 4.24-2.98 4.645-5.539.126-.797.08-1.96-.107-2.707-.689-2.747-2.913-4.821-5.645-5.264-.604-.098-1.774-.096-2.368.003m2.42 2.048c1.798.438 3.267 1.956 3.674 3.796.131.593.119 1.605-.026 2.206-.237.979-.916 2.067-1.674 2.68-.964.78-1.979 1.144-3.186 1.144s-2.222-.364-3.186-1.144c-.758-.613-1.437-1.701-1.673-2.68-.147-.606-.159-1.618-.028-2.206a5.14 5.14 0 0 1 2.882-3.529c.317-.144.943-.32 1.392-.391.333-.053 1.395.019 1.825.124M9.867 16.541c-1.67.115-3.274.956-4.301 2.253-.719.909-1.127 1.794-1.417 3.073-.109.483-.115.661-.135 3.89-.018 2.987-.011 3.41.064 3.604.296.775 1.375.848 1.791.122l.131-.23.031-3.44c.034-3.755.029-3.698.363-4.561.487-1.26 1.492-2.162 2.844-2.552.788-.227.934-.229 1.355-.017 1.036.52 2.443.955 3.676 1.138.876.13 2.586.13 3.462 0 1.233-.183 2.64-.618 3.676-1.138.422-.212.567-.21 1.364.019 1.361.393 2.374 1.32 2.864 2.623.3.795.299.785.333 4.488l.032 3.44.131.23c.315.549 1.105.676 1.551.248.332-.318.327-.247.304-3.974-.02-3.246-.025-3.405-.137-3.901a8.3 8.3 0 0 0-.707-1.963c-1.058-2.055-3.166-3.36-5.429-3.36H21.2l-.773.389c-2.839 1.427-6.023 1.431-8.84.009-.418-.211-.85-.394-.96-.406a6 6 0 0 0-.76.016"/></svg>

<svg width="32" height="32" viewBox="0 0 32 32" fill="none" xmlns="http://www.w3.org/2000/svg"><path d="M14.792 2.110 C 13.481 2.331,12.196 2.983,11.190 3.939 C 10.182 4.897,9.538 6.006,9.194 7.377 C 9.008 8.118,8.962 9.284,9.088 10.078 C 9.493 12.637,11.298 14.789,13.733 15.617 C 14.567 15.901,15.026 15.972,16.000 15.972 C 16.974 15.972,17.433 15.901,18.267 15.617 C 20.702 14.789,22.507 12.637,22.912 10.078 C 23.038 9.281,22.992 8.118,22.805 7.371 C 22.116 4.624,19.892 2.550,17.160 2.107 C 16.556 2.009,15.386 2.011,14.792 2.110 M17.212 4.158 C 19.010 4.596,20.479 6.114,20.886 7.954 C 21.017 8.547,21.005 9.559,20.860 10.160 C 20.623 11.139,19.944 12.227,19.186 12.840 C 18.222 13.620,17.207 13.984,16.000 13.984 C 14.793 13.984,13.778 13.620,12.814 12.840 C 12.056 12.227,11.377 11.139,11.141 10.160 C 10.994 9.554,10.982 8.542,11.113 7.954 C 11.458 6.410,12.541 5.084,13.995 4.425 C 14.312 4.281,14.938 4.105,15.387 4.034 C 15.720 3.981,16.782 4.053,17.212 4.158 M9.867 16.541 C 8.197 16.656,6.593 17.497,5.566 18.794 C 4.847 19.703,4.439 20.588,4.149 21.867 C 4.040 22.350,4.034 22.528,4.014 25.757 C 3.996 28.744,4.003 29.167,4.078 29.361 C 4.374 30.136,5.453 30.209,5.869 29.483 L 6.000 29.253 6.031 25.813 C 6.065 22.058,6.060 22.115,6.394 21.252 C 6.881 19.992,7.886 19.090,9.238 18.700 C 10.026 18.473,10.172 18.471,10.593 18.683 C 11.629 19.203,13.036 19.638,14.269 19.821 C 15.145 19.951,16.855 19.951,17.731 19.821 C 18.964 19.638,20.371 19.203,21.407 18.683 C 21.829 18.471,21.974 18.473,22.771 18.702 C 24.132 19.095,25.145 20.022,25.635 21.325 C 25.935 22.120,25.934 22.110,25.968 25.813 L 26.000 29.253 26.131 29.483 C 26.446 30.032,27.236 30.159,27.682 29.731 C 28.014 29.413,28.009 29.484,27.986 25.757 C 27.966 22.511,27.961 22.352,27.849 21.856 C 27.692 21.158,27.455 20.503,27.142 19.893 C 26.084 17.838,23.976 16.533,21.713 16.533 L 21.200 16.533 20.427 16.922 C 17.588 18.349,14.404 18.353,11.587 16.931 C 11.169 16.720,10.737 16.537,10.627 16.525 C 10.517 16.513,10.175 16.520,9.867 16.541 " fill="#1A1C1F" stroke="none" fill-rule="evenodd"></path></svg>
